X:229
T: Tan shi sheng
N: C1714
O: China,Hebei, Shangyi
S: Hanzu minge gailun, 222]
R: Xiaodiao, Mengjiangn diao. Suku]
M: 2/4
L: 1/16
K: F
F2F2F2FG | E2D2C4 | d2d2B2A2 | G3FG4 |
A2GAc4 | d2d2c4 | AcGFEGD2 | C8 |
F2CDF4 | G2FGA4 | GAGFE2DC | D6z2 |
c2dfc4 | d2cdc4 | F2cAGAGF | D2CDFGED | C8

@@@ Tune index: 6784
